X: 06042
T: The LITTLE REEL
C: Bob McQuillen 18 Dec 81
B: Bob's Note Book 6 #42
%R: C
Z: 2021 John Chambers <jc:trillian.mit.edu>
M: C
L: 1/8
K: G
|: Bded Bded | edeg edBd | eged BGEG | DEGB AGEG :|
|: BAGA BGEG | DEGB AGEG | DEGA Bdeg | ageg dBAG :|
|: dBde degb | ageg dBAB | GEDE GABd | edBG AGEG :|
|: DEGA GEDE | GABd edBA | B2dB A2BA | GEDE GABG :|
%%begintext align
%% It really was
%% such a pleasure to write this tune for
%% Jason Little and his brother, Brendan,
%% super musicians both, in the Cape Breton
%% tradition.
%%endtext

%%sep 1 1 500

%%sep 1 1 500

